dist/svgs/crypto-icons/icons/neos.svg

<?xml version="1.0" encoding="UTF-8" standalone="yes"?>
<svg xmlns="http://www.w3.org/2000/svg" xmlns:xlink="http://www.w3.org/1999/xlink" width="512px" height="512px" viewBox="0 0 384 384" version="1.1">
  <g id="surface1">
    <path style=" stroke:none;fill-rule:nonzero;fill:rgb(0%,0%,0%);fill-opacity:1;" d="M 0 0 L 41.949219 0 L 41.949219 384.179688 L 0 384.179688 Z M 235.125 106.144531 L 50.699219 0 L 50.699219 384.179688 L 92.648438 384.179688 L 92.648438 72.226562 L 235.125 154.660156 Z M 235.125 47.503906 L 153.019531 0 L 69.304688 0 L 235.125 96.015625 Z M 235.125 0 L 170.519531 0 L 235.125 37.378906 Z M 342.234375 0 L 384.179688 0 L 384.179688 384.179688 L 342.234375 384.179688 Z M 342.234375 0 "/>
    <path style=" stroke:none;fill-rule:nonzero;fill:rgb(0%,0%,0%);fill-opacity:1;" d="M 291.53125 311.957031 L 149.054688 229.523438 L 149.054688 278.039062 L 333.480469 384.179688 L 333.480469 0 L 291.53125 0 Z M 149.054688 336.679688 L 231.160156 384.179688 L 314.871094 384.179688 L 149.054688 288.164062 Z M 149.054688 384.179688 L 213.660156 384.179688 L 149.054688 346.808594 Z M 149.054688 384.179688 "/>
  </g>
</svg>

<svg xmlns="http://www.w3.org/2000/svg" viewBox="0 0 384 384"><path d="M0 0h41.95v384.18H0zm235.125 106.145L50.699 0v384.18h41.95V72.227l142.476 82.433zm0-58.641L153.02 0H69.305l165.82 96.016zm0-47.504H170.52l64.605 37.379zm107.11 0h41.945v384.18h-41.946zm0 0"/><path d="M291.531 311.957l-142.476-82.434v48.516L333.48 384.18V0h-41.949zM149.055 336.68l82.105 47.5h83.711l-165.816-96.016zm0 47.5h64.605l-64.605-37.371zm0 0"/></svg>
